X: 30523
T: SCOTCH REEL. N. 2.
C:
%R: reel
B: Elias Howe "The Musician's Companion" Part 3 1844 p.53 #3
S: http://imslp.org/wiki/The_Musician's_Companion_(Howe,_Elias)
S: https://archive.org/stream/firstthirdpartof03howe/#page/66/mode/1up
Z: 2015 John Chambers <jc:trillian.mit.edu>
M: C|
L: 1/8
K: F
% - - - - - - - - - - - - - - - - - - - - - - - - -
|:\
fcAc fcAc | fgef g2g2 |\
fgab bagf | efge f2f2 ::\
cc AA c2cA | dcBA B2G2 |\
B2BG B2Bd | cBAG F2F2 :|
% - - - - - - - - - - - - - - - - - - - - - - - - -
